Icons_UI/backup/bcpst original/t.svg

<svg xmlns="http://www.w3.org/2000/svg" viewBox="0 0 654 693">
  <g transform="translate(-3626, -1105)">
  <g fill-rule="evenodd">
    <path fill="#f4900c" d="M3626 1471c0-180.6 146.4-327 327-327s327 146.4 327 327-146.4 327-327 327-327-146.4-327-327"/>
    <path fill="#ffcc4d" d="M3626 1432.5c0-180.87 146.4-327.5 327-327.5s327 146.63 327 327.5-146.4 327.5-327 327.5-327-146.63-327-327.5"/>
    <path fill="#ffe8b6" d="M3683 1451.5c0-148.84 120.66-269.5 269.5-269.5s269.5 120.66 269.5 269.5-120.66 269.5-269.5 269.5-269.5-120.66-269.5-269.5"/>
    <path fill="#ffac33" d="M3683 1432.5c0-148.84 120.66-269.5 269.5-269.5s269.5 120.66 269.5 269.5-120.66 269.5-269.5 269.5-269.5-120.66-269.5-269.5"/>
    <path fill="#ffe8b6" d="M3790 1314.5c0-10.56 10.31-14.79 10.31-14.79l151.84-71.71 153.29 71.71s10.56 2.37 10.56 14.87V1327h-326z"/>
    <path fill="#f4900c" d="M4105.51 1352.39c0-11.27-9.71-20.39-21.67-20.39h-263c-11.99 0-20.33 9.12-20.33 20.39 0 7.65 3.92 14.25 10.17 17.74v12.85h40.66v-10.21h40.67v10.21h40.66v-10.21h40.66v10.21h40.66v-10.21h40.67v10.21h40.68v-13.37c6.1-3.63 10.17-9.97 10.17-17.22m30.49 215.32c0 8.44-6.83 15.29-15.25 15.29h-335.5c-8.42 0-15.25-6.85-15.25-15.29 0-8.45 6.83-15.3 15.25-15.3h335.52c8.4 0 15.23 6.85 15.23 15.3"/>
    <path fill="#f4900c" d="M4116 1340.22c0 5.64-4.55 10.22-10.2 10.22h-305.6c-5.63 0-10.2-4.58-10.2-10.22s4.57-10.22 10.2-10.22l305.6.06c5.65.02 10.2 4.52 10.2 10.16m-275.04 11.86h224.12V1375h-224.12Z"/>
    <path fill="#ffd983" d="M3850.73 1506.65c0 11.24-6.09 20.35-13.58 20.35h-13.57c-7.5 0-13.58-9.11-13.58-20.35v-154.3c0-11.24 6.08-20.35 13.58-20.35h13.57c7.49 0 13.58 9.11 13.58 20.35zm244.27 0c0 11.24-6.06 20.35-13.57 20.35h-13.58c-7.49 0-13.58-9.11-13.58-20.35v-154.3c0-11.24 6.07-20.35 13.58-20.35h13.58c7.49 0 13.57 9.11 13.57 20.35zm-162.84 0c0 11.24-6.09 20.35-13.58 20.35h-13.57c-7.49 0-13.58-9.11-13.58-20.35v-154.3c0-11.24 6.09-20.35 13.58-20.35h13.57c7.49 0 13.58 9.11 13.58 20.35zm81.41 0c0 11.24-6.09 20.35-13.58 20.35h-13.55c-7.49 0-13.58-9.11-13.58-20.35v-154.3c0-11.24 6.09-20.35 13.58-20.35h13.55c7.49 0 13.58 9.11 13.58 20.35z"/>
    <path fill="#ffcc4d" d="M4105 1516.5c0 11.33-9.1 20.5-20.33 20.5h-264.34c-11.23 0-20.33-9.17-20.33-20.5s9.1-20.5 20.33-20.5h264.34c11.21 0 20.33 9.17 20.33 20.5"/>
    <path fill="#ffd983" d="M4126 1536.5c0 11.33-9.11 20.5-20.35 20.5h-305.3c-11.24 0-20.35-9.17-20.35-20.5s9.11-20.5 20.35-20.5h305.28c11.24 0 20.37 9.17 20.37 20.5"/>
    <path fill="#ffd983" d="M4136 1552c0 8.29-6.83 15-15.25 15h-335.5c-8.42 0-15.25-6.71-15.25-15s6.83-15 15.25-15h335.52c8.4 0 15.23 6.71 15.23 15"/>
    <path fill="#ffcc4d" d="M4105 1341.4c0-11.27-9.71-20.4-21.68-20.4h-262.99c-11.98 0-20.33 9.13-20.33 20.4 0 7.66 3.92 14.26 10.18 17.75V1372h40.66v-10.21h40.66V1372h40.66v-10.21h40.66V1372h40.66v-10.21h40.66V1372h40.69v-13.37c6.09-3.63 10.17-9.98 10.17-17.23"/>
    <path fill="#ffd983" d="M3790 1326.3c0-10.54 10.31-14.76 10.31-14.76l151.84-71.54 153.29 71.54s10.56 2.36 10.56 14.83v5.63h-326z"/>
    <path fill="#ffac33" d="M3952.99 1266s-104.92 49.7-115.38 54.19c-10.48 4.46-6.98 11.81.02 11.81h230.22c10.81 0 8.25-8.29-.32-12.78-8.58-4.46-114.54-53.22-114.54-53.22"/>
    <path fill="#ffd983" d="M4116 1331.5c0 5.8-4.55 10.5-10.2 10.5h-305.6c-5.63 0-10.2-4.7-10.2-10.5s4.57-10.5 10.2-10.5l305.6.06c5.65.02 10.2 4.64 10.2 10.44"/>
  </g>
  </g>
</svg>

<svg width="654" height="693" xmlns="http://www.w3.org/2000/svg" xmlns:xlink="http://www.w3.org/1999/xlink" xml:space="preserve" overflow="hidden"><defs><clipPath id="clip0"><rect x="3626" y="1105" width="654" height="693"/></clipPath></defs><g clip-path="url(#clip0)" transform="translate(-3626 -1105)"><path d="M3626 1471C3626 1290.4 3772.4 1144 3953 1144 4133.6 1144 4280 1290.4 4280 1471 4280 1651.6 4133.6 1798 3953 1798 3772.4 1798 3626 1651.6 3626 1471Z" fill="#F4900C" fill-rule="evenodd"/><path d="M3626 1432.5C3626 1251.63 3772.4 1105 3953 1105 4133.6 1105 4280 1251.63 4280 1432.5 4280 1613.37 4133.6 1760 3953 1760 3772.4 1760 3626 1613.37 3626 1432.5Z" fill="#FFCC4D" fill-rule="evenodd"/><path d="M3683 1451.5C3683 1302.66 3803.66 1182 3952.5 1182 4101.34 1182 4222 1302.66 4222 1451.5 4222 1600.34 4101.34 1721 3952.5 1721 3803.66 1721 3683 1600.34 3683 1451.5Z" fill="#FFE8B6" fill-rule="evenodd"/><path d="M3683 1432.5C3683 1283.66 3803.66 1163 3952.5 1163 4101.34 1163 4222 1283.66 4222 1432.5 4222 1581.34 4101.34 1702 3952.5 1702 3803.66 1702 3683 1581.34 3683 1432.5Z" fill="#FFAC33" fill-rule="evenodd"/><path d="M3790 1314.5C3790 1303.94 3800.31 1299.71 3800.31 1299.71L3952.15 1228 4105.44 1299.71C4105.44 1299.71 4116 1302.08 4116 1314.58L4116 1327 3790 1327 3790 1314.5Z" fill="#FFE8B6" fill-rule="evenodd"/><path d="M4105.51 1352.39C4105.51 1341.12 4095.8 1332 4083.84 1332L3820.84 1332C3808.85 1332 3800.51 1341.12 3800.51 1352.39 3800.51 1360.04 3804.43 1366.64 3810.68 1370.13L3810.68 1382.98 3851.34 1382.98 3851.34 1372.77 3892.01 1372.77 3892.01 1382.98 3932.67 1382.98 3932.67 1372.77 3973.33 1372.77 3973.33 1382.98 4013.99 1382.98 4013.99 1372.77 4054.66 1372.77 4054.66 1382.98 4095.34 1382.98 4095.34 1369.61C4101.44 1365.98 4105.51 1359.64 4105.51 1352.39ZM4136 1567.71C4136 1576.15 4129.17 1583 4120.75 1583L3785.25 1583C3776.83 1583 3770 1576.15 3770 1567.71 3770 1559.26 3776.83 1552.41 3785.25 1552.41L4120.77 1552.41C4129.17 1552.41 4136 1559.26 4136 1567.71Z" fill="#F4900C" fill-rule="evenodd"/><path d="M4116 1340.22C4116 1345.86 4111.45 1350.44 4105.8 1350.44L3800.2 1350.44C3794.57 1350.44 3790 1345.86 3790 1340.22 3790 1334.58 3794.57 1330 3800.2 1330L4105.8 1330.06C4111.45 1330.08 4116 1334.58 4116 1340.22ZM3840.96 1352.08 4065.08 1352.08 4065.08 1375 3840.96 1375Z" fill="#F4900C" fill-rule="evenodd"/><path d="M3850.73 1506.65C3850.73 1517.89 3844.64 1527 3837.15 1527L3823.58 1527C3816.08 1527 3810 1517.89 3810 1506.65L3810 1352.35C3810 1341.11 3816.08 1332 3823.58 1332L3837.15 1332C3844.64 1332 3850.73 1341.11 3850.73 1352.35L3850.73 1506.65ZM4095 1506.65C4095 1517.89 4088.94 1527 4081.43 1527L4067.85 1527C4060.36 1527 4054.27 1517.89 4054.27 1506.65L4054.27 1352.35C4054.27 1341.11 4060.34 1332 4067.85 1332L4081.43 1332C4088.92 1332 4095 1341.11 4095 1352.35L4095 1506.65ZM3932.16 1506.65C3932.16 1517.89 3926.07 1527 3918.58 1527L3905.01 1527C3897.52 1527 3891.43 1517.89 3891.43 1506.65L3891.43 1352.35C3891.43 1341.11 3897.52 1332 3905.01 1332L3918.58 1332C3926.07 1332 3932.16 1341.11 3932.16 1352.35L3932.16 1506.65ZM4013.57 1506.65C4013.57 1517.89 4007.48 1527 3999.99 1527L3986.44 1527C3978.95 1527 3972.86 1517.89 3972.86 1506.65L3972.86 1352.35C3972.86 1341.11 3978.95 1332 3986.44 1332L3999.99 1332C4007.48 1332 4013.57 1341.11 4013.57 1352.35L4013.57 1506.65Z" fill="#FFD983" fill-rule="evenodd"/><path d="M4105 1516.5C4105 1527.83 4095.9 1537 4084.67 1537L3820.33 1537C3809.1 1537 3800 1527.83 3800 1516.5 3800 1505.17 3809.1 1496 3820.33 1496L4084.67 1496C4095.88 1496 4105 1505.17 4105 1516.5Z" fill="#FFCC4D" fill-rule="evenodd"/><path d="M4126 1536.5C4126 1547.83 4116.89 1557 4105.65 1557L3800.35 1557C3789.11 1557 3780 1547.83 3780 1536.5 3780 1525.17 3789.11 1516 3800.35 1516L4105.63 1516C4116.87 1516 4126 1525.17 4126 1536.5Z" fill="#FFD983" fill-rule="evenodd"/><path d="M4136 1552C4136 1560.29 4129.17 1567 4120.75 1567L3785.25 1567C3776.83 1567 3770 1560.29 3770 1552 3770 1543.71 3776.83 1537 3785.25 1537L4120.77 1537C4129.17 1537 4136 1543.71 4136 1552Z" fill="#FFD983" fill-rule="evenodd"/><path d="M4105 1341.4C4105 1330.13 4095.29 1321 4083.32 1321L3820.33 1321C3808.35 1321 3800 1330.13 3800 1341.4 3800 1349.06 3803.92 1355.66 3810.18 1359.15L3810.18 1372 3850.84 1372 3850.84 1361.79 3891.5 1361.79 3891.5 1372 3932.16 1372 3932.16 1361.79 3972.82 1361.79 3972.82 1372 4013.48 1372 4013.48 1361.79 4054.14 1361.79 4054.14 1372 4094.83 1372 4094.83 1358.63C4100.92 1355 4105 1348.65 4105 1341.4Z" fill="#FFCC4D" fill-rule="evenodd"/><path d="M3790 1326.3C3790 1315.76 3800.31 1311.54 3800.31 1311.54L3952.15 1240 4105.44 1311.54C4105.44 1311.54 4116 1313.9 4116 1326.37L4116 1332 3790 1332 3790 1326.3Z" fill="#FFD983" fill-rule="evenodd"/><path d="M3952.99 1266C3952.99 1266 3848.07 1315.7 3837.61 1320.19 3827.13 1324.65 3830.63 1332 3837.63 1332L4067.85 1332C4078.66 1332 4076.1 1323.71 4067.53 1319.22 4058.95 1314.76 3952.99 1266 3952.99 1266Z" fill="#FFAC33" fill-rule="evenodd"/><path d="M4116 1331.5C4116 1337.3 4111.45 1342 4105.8 1342L3800.2 1342C3794.57 1342 3790 1337.3 3790 1331.5 3790 1325.7 3794.57 1321 3800.2 1321L4105.8 1321.06C4111.45 1321.08 4116 1325.7 4116 1331.5Z" fill="#FFD983" fill-rule="evenodd"/></g></svg>
